!! 00000] TT[WS
!!!OTL: Xianyang hua
!!!ARE: Asia, China, Shanxi Changchi
!! Ethnic Group: Han
!! WI, 290 (2)
!!!SCT: J0351
!!!YEM: Copyright 1995, estate of Helmut Schaffrath.
**kern
*ICvox
*Ivox
*M2/4
*k[f#]
*G:
{8dd
4ee
8b
=1
2dd
=2
8dd
4b
8a
=3
2g}
=4
{8a
4a
8b
=5
8dd
8b
4a
=6
4e
8b
8a
=7
2g}
=8
{8b
8a
4g
=9
4g
4e
=10
8e
8g
8e
8g
=11
8dd
8b
8a
8g}
=12
{8e
8g
8a
8b
=13
8a
8g
4e
=14
2d}
==
!!!AGN: Xiaodiao. Xinminge, Xuanchuan
!! Neue Text. Politische Liede
!!!ONB: ESAC (Essen Associative Code) Database: CHINA
!!!AMT: simple duple
!!!AIN: vox
!!!EED: Helmut Schaffrath
!!!EEV: 1.0
*-
